crown.svg

<svg fill="currentColor" viewBox="0 0 24 24"><path d="M5 16 3 5l5.5 5L12 4l3.5 6L21 5l-2 11zm14 3c0 .6-.4 1-1 1H6c-.6 0-1-.4-1-1v-1h14z"/></svg>

<svg  viewBox="0 0 24 24" fill="currentColor"><path  d="M5 16L3 5L8.5 10L12 4L15.5 10L21 5L19 16H5M19 19C19 19.6 18.6 20 18 20H6C5.4 20 5 19.6 5 19V18H19V19Z"/></svg>
